public/img/assets/icons/weather-conditions/clear-day.svg

<svg width="120" height="120" viewBox="0 0 120 120" fill="none" xmlns="http://www.w3.org/2000/svg">
<path d="M37.978 59.9795C37.978 72.1222 47.8604 82 60.0088 82C72.1572 82 82.0396 72.1222 82.0396 59.9795C82.0396 47.8367 72.1572 37.959 60.0088 37.959C47.8604 37.959 37.978 47.8367 37.978 59.9795ZM55.6 18C55.6 16.8954 56.4954 16 57.6 16H62.4C63.5046 16 64.4 16.8954 64.4 18V27.1938C64.4 28.2984 63.5046 29.1938 62.4 29.1938H57.6C56.4954 29.1938 55.6 28.2984 55.6 27.1938V18ZM16 57.5815C16 56.477 16.8954 55.5815 18 55.5815H27.2C28.3046 55.5815 29.2 56.477 29.2 57.5815V62.3774C29.2 63.482 28.3046 64.3774 27.2 64.3774H18C16.8954 64.3774 16 63.482 16 62.3774V57.5815ZM90.8 57.5815C90.8 56.477 91.6954 55.5815 92.8 55.5815H102C103.105 55.5815 104 56.477 104 57.5815V62.3774C104 63.482 103.105 64.3774 102 64.3774H92.8C91.6954 64.3774 90.8 63.482 90.8 62.3774V57.5815ZM80.08 36.5192C79.2985 35.7381 79.2985 34.4713 80.08 33.6901L86.5877 27.1855C87.3687 26.4049 88.6345 26.4049 89.4155 27.1855L92.808 30.5764C93.5895 31.3575 93.5895 32.6244 92.808 33.4055L86.3003 39.9102C85.5193 40.6908 84.2535 40.6908 83.4725 39.9102L80.08 36.5192ZM36.5278 39.9142C35.7467 40.695 34.4806 40.6948 33.6997 39.9139L27.1962 33.4104C26.4149 32.629 26.4152 31.362 27.1971 30.5811L30.5927 27.1895C31.374 26.4091 32.6399 26.4097 33.4206 27.1907L39.9213 33.6945C40.7022 34.4758 40.7019 35.7421 39.9207 36.523L36.5278 39.9142Z" fill="#F7D056"/>
<path d="M37.978 60.0205C37.978 47.8778 47.8604 38 60.0088 38C72.1572 38 82.0396 47.8778 82.0396 60.0205C82.0396 72.1633 72.1572 82.041 60.0088 82.041C47.8604 82.041 37.978 72.1633 37.978 60.0205ZM55.6 102C55.6 103.105 56.4954 104 57.6 104H62.4C63.5046 104 64.4 103.105 64.4 102V92.8062C64.4 91.7016 63.5046 90.8062 62.4 90.8062H57.6C56.4954 90.8062 55.6 91.7016 55.6 92.8062V102ZM16 62.4185C16 63.523 16.8954 64.4185 18 64.4185H27.2C28.3046 64.4185 29.2 63.523 29.2 62.4185V57.6226C29.2 56.518 28.3046 55.6226 27.2 55.6226H18C16.8954 55.6226 16 56.518 16 57.6226V62.4185ZM90.8 62.4185C90.8 63.523 91.6954 64.4185 92.8 64.4185H102C103.105 64.4185 104 63.523 104 62.4185V57.6226C104 56.518 103.105 55.6226 102 55.6226H92.8C91.6954 55.6226 90.8 56.518 90.8 57.6226V62.4185ZM80.08 83.4808C79.2985 84.2619 79.2985 85.5287 80.08 86.3099L86.5877 92.8145C87.3687 93.5951 88.6345 93.5951 89.4155 92.8145L92.808 89.4236C93.5895 88.6425 93.5895 87.3756 92.808 86.5945L86.3003 80.0898C85.5193 79.3092 84.2535 79.3092 83.4725 80.0898L80.08 83.4808ZM36.5278 80.0858C35.7467 79.305 34.4806 79.3052 33.6997 80.0861L27.1962 86.5896C26.4149 87.371 26.4152 88.638 27.1971 89.4189L30.5927 92.8105C31.374 93.5909 32.6399 93.5903 33.4206 92.8093L39.9213 86.3055C40.7022 85.5242 40.7019 84.2579 39.9207 83.477L36.5278 80.0858Z" fill="#F7D056"/>
<circle cx="60" cy="60" r="23" fill="#FDF72A"/>
<path fill-rule="evenodd" clip-rule="evenodd" d="M60 71C62.3081 71 64.3993 70.2599 66.0213 69.0541C66.9077 68.3951 68.1626 68.2797 69 69V69C69.8374 69.7203 69.9403 70.9967 69.0997 71.7133C66.6909 73.767 63.4861 75 60 75C56.5139 75 53.3091 73.767 50.9003 71.7133C50.0597 70.9967 50.1626 69.7203 51 69V69C51.8374 68.2797 53.0923 68.3951 53.9788 69.0541C55.6007 70.2599 57.692 71 60 71Z" fill="#F7D056"/>
<path fill-rule="evenodd" clip-rule="evenodd" d="M33 51C33 48.2386 35.2386 46 38 46H50C52.0503 46 53.8124 47.2341 54.584 49H64.416C65.1876 47.2341 66.9497 46 69 46H81C83.7614 46 86 48.2386 86 51V58C86 60.7614 83.7614 63 81 63H69C66.2386 63 64 60.7614 64 58V55H55V58C55 60.7614 52.7614 63 50 63H38C35.2386 63 33 60.7614 33 58V51Z" fill="#F7D056"/>
<path fill-rule="evenodd" clip-rule="evenodd" d="M82.8493 62.6468C82.9489 61.7784 83 60.8951 83 60C83 54.732 81.2289 49.8777 78.2497 46H69C66.9497 46 65.1876 47.2341 64.416 49H54.584C53.8124 47.2341 52.0503 46 50 46H41.7502C38.7711 49.8777 37 54.732 37 60C37 60.994 37.0631 61.9732 37.1854 62.934C37.4505 62.9774 37.7226 63 38 63H50C52.7614 63 55 60.7614 55 58V55H64V58C64 60.7614 66.2386 63 69 63H81C81.6533 63 82.2773 62.8747 82.8493 62.6468Z" fill="#FEB800"/>
</svg>

<svg width="120" height="120" fill="none" xmlns="http://www.w3.org/2000/svg"><path d="M37.978 59.98c0 12.142 9.882 22.02 22.03 22.02 12.15 0 22.032-9.878 22.032-22.02 0-12.143-9.883-22.021-22.031-22.021-12.149 0-22.031 9.878-22.031 22.02ZM55.6 18a2 2 0 0 1 2-2h4.8a2 2 0 0 1 2 2v9.194a2 2 0 0 1-2 2h-4.8a2 2 0 0 1-2-2V18ZM16 57.581a2 2 0 0 1 2-2h9.2a2 2 0 0 1 2 2v4.796a2 2 0 0 1-2 2H18a2 2 0 0 1-2-2v-4.796Zm74.8 0a2 2 0 0 1 2-2h9.2a2 2 0 0 1 2 2v4.796a2 2 0 0 1-2 2h-9.2a2 2 0 0 1-2-2v-4.796ZM80.08 36.52a2 2 0 0 1 0-2.829l6.508-6.504a2 2 0 0 1 2.828 0l3.392 3.39a2 2 0 0 1 0 2.83L86.3 39.91a2 2 0 0 1-2.828 0l-3.392-3.39Zm-43.552 3.395a2 2 0 0 1-2.828 0l-6.504-6.504a2 2 0 0 1 .001-2.829l3.396-3.392a2 2 0 0 1 2.828.002l6.5 6.503a2 2 0 0 1 0 2.829l-3.393 3.391Z" fill="#F7D056"/><path d="M37.978 60.02c0-12.142 9.882-22.02 22.03-22.02 12.15 0 22.032 9.878 22.032 22.02 0 12.143-9.883 22.021-22.031 22.021-12.149 0-22.031-9.878-22.031-22.02ZM55.6 102a2 2 0 0 0 2 2h4.8a2 2 0 0 0 2-2v-9.194a2 2 0 0 0-2-2h-4.8a2 2 0 0 0-2 2V102ZM16 62.419a2 2 0 0 0 2 2h9.2a2 2 0 0 0 2-2v-4.796a2 2 0 0 0-2-2H18a2 2 0 0 0-2 2v4.796Zm74.8 0a2 2 0 0 0 2 2h9.2a2 2 0 0 0 2-2v-4.796a2 2 0 0 0-2-2h-9.2a2 2 0 0 0-2 2v4.796ZM80.08 83.48a2 2 0 0 0 0 2.829l6.508 6.504a2 2 0 0 0 2.828 0l3.392-3.39a2 2 0 0 0 0-2.83L86.3 80.09a2 2 0 0 0-2.828 0l-3.392 3.39Zm-43.552-3.395a2 2 0 0 0-2.828 0l-6.504 6.504a2 2 0 0 0 .001 2.829l3.396 3.392a2 2 0 0 0 2.828-.002l6.5-6.504a2 2 0 0 0 0-2.828l-3.393-3.391Z" fill="#F7D056"/><circle cx="60" cy="60" r="23" fill="#FDF72A"/><path fill-rule="evenodd" clip-rule="evenodd" d="M60 71c2.308 0 4.4-.74 6.021-1.946.887-.659 2.142-.774 2.979-.054.837.72.94 1.997.1 2.713C66.69 73.767 63.486 75 60 75c-3.486 0-6.69-1.233-9.1-3.287-.84-.716-.737-1.993.1-2.713s2.092-.605 2.979.054C55.6 70.26 57.692 71 60 71ZM33 51a5 5 0 0 1 5-5h12a5.001 5.001 0 0 1 4.584 3h9.832A5.001 5.001 0 0 1 69 46h12a5 5 0 0 1 5 5v7a5 5 0 0 1-5 5H69a5 5 0 0 1-5-5v-3h-9v3a5 5 0 0 1-5 5H38a5 5 0 0 1-5-5v-7Z" fill="#F7D056"/><path fill-rule="evenodd" clip-rule="evenodd" d="M82.85 62.647c.099-.869.15-1.752.15-2.647a22.9 22.9 0 0 0-4.75-14H69a5.001 5.001 0 0 0-4.584 3h-9.832A5.001 5.001 0 0 0 50 46h-8.25A22.9 22.9 0 0 0 37 60c0 .994.063 1.973.185 2.934.265.043.538.066.815.066h12a5 5 0 0 0 5-5v-3h9v3a5 5 0 0 0 5 5h12c.653 0 1.277-.125 1.85-.353Z" fill="#FEB800"/></svg>
